icons/14x14_task_filled.svg

<svg xmlns="http://www.w3.org/2000/svg" width="14" height="14" viewBox="0 0 14 14">
  <path fill-rule="evenodd" d="M10,2 C11.132521,2 12,2.97591389 12,4.125 L12,10.875 C12,12.0240861 11.132521,13 10,13 L4,13 C2.86747902,13 2,12.0240861 2,10.875 L2,4.125 C2,2.97591389 2.86747902,2 4,2 L4,5 L10,5 L10,2 Z M6,1 L8,1 C8.55228475,1 9,1.44771525 9,2 L9,4 L5,4 L5,2 C5,1.44771525 5.44771525,1 6,1 Z"/>
</svg>

<svg width="14" height="14" fill="none" xmlns="http://www.w3.org/2000/svg"><path fill-rule="evenodd" clip-rule="evenodd" d="M10 2c1.133 0 2 .976 2 2.125v6.75c0 1.15-.867 2.125-2 2.125H4c-1.133 0-2-.976-2-2.125v-6.75C2 2.975 2.867 2 4 2v3h6V2ZM6 1h2a1 1 0 0 1 1 1v2H5V2a1 1 0 0 1 1-1Z" fill="#000"/></svg>
